components/Common/Svg/svgs/heart.svg

<svg width="40" height="40" viewBox="0 0 40 40" fill="none" xmlns="http://www.w3.org/2000/svg">
<path fill-rule="evenodd" clip-rule="evenodd" d="M24.871 6.49325C22.8523 7.64677 21.4297 9.37643 20.8943 10.4472C20.7249 10.786 20.3786 11 19.9998 11C19.6211 11 19.2748 10.786 19.1054 10.4472C18.5256 9.28762 17.3748 7.57683 15.6951 6.45706C14.0678 5.37216 11.9122 4.81209 9.12124 5.92848C3.59118 8.14051 2.37122 14.8285 5.79985 19.4C7.61694 21.8228 11.3058 25.5176 14.5958 28.6509C16.2298 30.2071 17.7478 31.6083 18.8574 32.6206C19.3146 33.0377 19.7022 33.3885 19.9998 33.6568C20.2975 33.3885 20.6851 33.0377 21.1423 32.6206C22.2519 31.6083 23.7699 30.2071 25.4039 28.6509C28.6939 25.5176 32.3828 21.8228 34.1998 19.4C35.9422 17.0769 36.7869 14.2014 36.506 11.6729C36.23 9.18968 34.8774 7.02806 32.1285 5.92848C29.345 4.8151 26.8534 5.36043 24.871 6.49325ZM19.9998 35C19.3355 35.7474 19.3354 35.7474 19.3353 35.7472L19.3021 35.7177L19.2062 35.6321C19.1222 35.557 18.9987 35.4464 18.8405 35.3041C18.524 35.0195 18.0681 34.6078 17.5095 34.0981C16.3925 33.0792 14.8636 31.6679 13.2164 30.0991C9.9439 26.9824 6.13276 23.1772 4.19985 20.6C0.128482 15.1715 1.40851 6.85951 8.37846 4.07153C11.8375 2.68793 14.6819 3.37785 16.8045 4.79296C18.2124 5.73153 19.2868 6.97483 20.041 8.09589C20.9345 6.93934 22.2505 5.68718 23.8787 4.75676C26.2713 3.38958 29.4047 2.68492 32.8712 4.07153C36.3723 5.47196 38.1446 8.31034 38.4937 11.4521C38.8378 14.5487 37.8075 17.9231 35.7998 20.6C33.8669 23.1772 30.0558 26.9824 26.7833 30.0991C25.1361 31.6679 23.6072 33.0792 22.4902 34.0981C21.9316 34.6078 21.4757 35.0195 21.1592 35.3041C21.001 35.4464 20.8775 35.557 20.7935 35.6321L20.6976 35.7177L20.6648 35.7469C20.6647 35.747 20.6642 35.7474 19.9998 35ZM19.9998 35L20.6648 35.7469C20.286 36.0836 19.7142 36.084 19.3353 35.7472L19.9998 35Z" fill="#161616"/>
</svg>

<svg width="40" height="40" viewBox="0 0 40 40" fill="none" xmlns="http://www.w3.org/2000/svg"><path fill-rule="evenodd" clip-rule="evenodd" d="M24.871 6.493c-2.019 1.154-3.441 2.883-3.977 3.954a1 1 0 0 1-1.789 0c-.58-1.16-1.73-2.87-3.41-3.99-1.627-1.085-3.783-1.645-6.574-.529-5.53 2.213-6.75 8.9-3.321 13.472 1.817 2.423 5.506 6.118 8.796 9.25A276.198 276.198 0 0 0 20 33.658a276.198 276.198 0 0 0 5.404-5.006c3.29-3.133 6.979-6.828 8.796-9.251 1.742-2.323 2.587-5.199 2.306-7.727-.276-2.483-1.629-4.645-4.377-5.745-2.784-1.113-5.276-.568-7.258.565ZM20 35l-.665.747-.033-.03-.096-.085-.366-.328c-.316-.285-.772-.696-1.33-1.206a277.258 277.258 0 0 1-4.294-3.999C9.944 26.982 6.133 23.177 4.2 20.6.128 15.171 1.409 6.86 8.378 4.072c3.46-1.384 6.304-.694 8.427.721 1.407.939 2.482 2.182 3.236 3.303a13.289 13.289 0 0 1 3.838-3.34c2.392-1.366 5.526-2.071 8.992-.684 3.501 1.4 5.274 4.238 5.623 7.38.344 3.097-.687 6.471-2.694 9.148-1.933 2.577-5.744 6.382-9.017 9.5a277.258 277.258 0 0 1-5.99 5.532l-.095.086-.033.029L20 35Zm0 0 .665.747c-.379.337-.95.337-1.33 0L20 35Z" fill="#161616"/></svg>
